X: 40253
T: Tjønneblomen
R: waltz
M: 3/4
K: Eminor
|E2 G2 A2|B4 B2|c3B A2|B6|B2 d2 e2|fa g2 f2|e4 d2|B6|
E2 G2 A2|B4 B2|c3B A2|B6|B2 d2 e2|fa g2 f2|e6|e6:|
g3f e2|f4 a2|g3f e2|f6|g2 f2 e2|e2 d2 e2|f4 d2|B6|
g3f e2|f4 a2|g3 a b2|f6|g2 f2 e2|e2 d2 f2|e6|e6||
ef g2 b2|a2 f2 f2|ef g2 b2|f2 f2 f2|ef g2 b2|a2 f2 gf|e4d2|B6|
ef g2 b2|a2 f2 g2|e6|e6||
e2 B3 d|d2 c2 e2|e2 B2 cB|A4 B2|G3 F E2|E2 G2 A2|B6|B6|
B2 e3d|d2 c2 A2|c2 B2 A2|B4 GF|E2 G2 A2|B2 G2 F2|E6|E6||
EF G2 E2|F4 A2|G3 F E2|F6|B,2 E2 F2|G3 F E2|E2 G2 A2|B6|
E2 G2 A2|B4 B2|c3B A2|B6|B2 G2 E2|B,2 D2 F2|E6|E6||

